X:1
T:In virtute tua
T:In virtute tua
T:Horatio Tarditi
C:Horatio Tarditi
%%score [ 1 2 ] { ( 3 4 ) 5 }
L:1/8
Q:1/4=120
M:4/4
K:C
V:1 alto1 nm="Soprano"
V:2 bass nm="Bass 1"
V:3 treble nm="MusicXML Part"
V:4 treble 
V:5 bass nm="MusicXML Part"
V:1
 z8 z4 G4 | z8 | z8 | z8 | z8 | z4 G4- | GGGG G3 ^F | G3 G G4 | z2 G2 cd/c/ Bc/B/ | A>G A>B c4- | %10
w: |||||In|_ vir- tu- te tu- a|Do- mi- ne|lae- ta- * * * * *||
 c2 B>B B4 | A8 | z8 | z4 d4- | dddd d3 ^c | d3 d d2 z2 | z4 z2 A2 | Bc/d/ ^cd/e/ ddBB | %18
w: * bi- tur iu-|stus||in|_ vir- tu- te tu- a|Do- mi- ne|lae-|ta- * * * * * * bi- tur, lae-|
 cd/e/ de/f/ e4- | e2 dc B4 | A4 z2 A2 | de/d/ cd/c/ B4- | B2 AA A4 | G8 || z8 | z8 | %26
w: ta- * * * * * *|* bi- tur iu-|stus lae-|ta- * * * * * *|* bi- tur iu-|stus.|||
 z2 G2 A>A B>B | c2 B2 A4 | G4 z2 A>A | B>c d>d d2 ^c2 | d2 A2 B>B ^c>c | d2 c2 B4 | %32
w: Et su- per sa- lu-|ta- re tu-|um ex- sul-|ta- vit ve- he- men- *|ter, et su- per sa- lu-|ta- re tu-|
 A2 e2 e>e d>d | c3 c B4 | B2 d>c B4 | G4 z2 c2- | c2 B2 A4 | G4 z4 | z8 | z8 | z8 | z8 | z8 | %43
w: um, et su- per sa- lu-|ta- re tu-|um, ex- sul- ta-|vit ve-|* he- men-|ter||||||
 z2 G>G G3 G | G4 z2 G2- | G2 G^F G4 | G2 GA FD GF | E4 D4 | z4 z AAA | B>c d>d d3 ^c | %50
w: de- si- de- ri-|um a-|* ni- mae e-|ius tri- bu- i- * sti *|e- i|et vo- lun-|ta- te la- bi- o- rum|
 d2 d2 B2 B2 | cA dc B4 | A4 z4 | z EEE ^FGAA | A3 ^G A2 A2 | z4 z2 d>c | B4 G4 | z2 B>^c d4- | %58
w: e- ius non frau-|da- * sti * e-|um|et vo- lun- ta- te la- bi-|o- rum e- ius|non frau-|da- sti|non frau- da-|
 d2 A2 A4 | G8 |] %60
w: * sti e-|um.|
V:2
 G,4 x12 | G,4- G,G,G,G, | G,3 ^F, G,3 G, | G,4 z2 D,2 | G,A,/G,/ F,G,/F,/ E,F,/E,/ D,E,/D,/ | %5
w: |In _ vir- tu- te|tu- a Do- mi-|ne lae-|ta- * * * * * * * * * * *|
 C,>D, E,>^F, G,2 G,,2 | C,4 D,4 | G,,8 | z8 | z4 A,4- | A,A,A,A, A,3 ^G, | A,3 A, A,4 | %12
w: * * * * * bi-|tur iu-|stus,||in|_ vir- tu- te tu- a|Do- mi- ne|
 z2 E,2 A,B,/A,/ G,A,/G,/ | F,G,/F,/ E,F,/E,/ D,4- | D,2 F,F, E,4 | D,8 | %16
w: lae- ta- * * * * *||* bi- tur iu-|stus|
 z2 D,2 E,F,/G,/ ^F,G,/A,/ | G,G,E,E, ^F,G,/A,/ ^G,A,/B,/ | A,6 E,^F, | ^G,2 A,4 G,2 | %20
w: lae- ta- * * * * *|* bi- tur, lae- ta- * * * * *|* bi- tur|iu- * *|
 A,2 A,,2 D,E,/D,/ C,D,/C,/ | B,,C,/B,,/ A,,B,,/A,,/ G,,2 B,,C, | D,8 | G,,8 || %24
w: stus, lae- ta- * * * * *|* * * * * * * bi- tur|iu-|stus.|
 z2 G,2 A,>A, B,>B, | C2 B,2 A,4 | G,4 z2 D,>D, | E,>F, G,>G, G,2 ^F,2 | G,2 D,2 E,>E, ^F,>F, | %29
w: Et su- per sa- lu-|ta- re tu-|um ex- sul-|ta- bit ve- he- men- *|ter, et su- per sa- lu-|
 G,2 F,2 E,4 | D,4 z2 E,>E, | F,>G, A,>A, A,2 ^G,2 | A,2 A,2 C>C B,>B, | A,3 A, G,4 | %34
w: ta- re tu-|um ex- sul-|ta- bit ve- he- men- *|ter, et su- per sa- lu-|ta- re tu-|
 G,4 z2 G,>F, | E,4 B,,2 C,2- | C,2 G,,2 D,4 | G,,4 z2 G,>G, | G,3 G, G,4 | A,6 F,F, | E,4 E,4 | %41
w: um ex- sul-|ta- bit ve-|* he- men-|ter de- si-|de- ri- um|a- ni- mae|e- ius|
 z2 E,>D, C,2 C,2 | D,8 | C,4 z4 | z2 C>C B,2 G,2 | A,4 G,4 | z8 | z4 z D,D,D, | %48
w: tri- bu- i- sti|e-|i,|tri- bu- i- sti|e- i||et vo- lun-|
 E,>F, G,>G, G,3 ^F, | G,2 G,2 E,2 E,2 | ^F,G, A,4 ^G,2 | A,4 z4 | z A,,A,,A,, B,,C,D,D, | %53
w: ta- te la- bi- o- rum|e- ius non frau-|da- sti e- *|um|et vo- lun- ta- te la- bi-|
 D,3 ^C, D,2 D,2 | z2 E,>E, F,2 D,2 | A,,4 D,4 | z2 G,>F, (E,4 | E,4) B,,4 | D,8 | G,,8 |] %60
w: * rum e- ius|non frau- da- sti|e- um|non frau- da-|* sti|e-|um.|
V:3
 z8 x8 | [B,DG]4 [Gd]2 [Ec]2 | [GB]3 [^FA] [GB]2 [Gd]2 | [GBd]4 [GB]2 G/A/B/c/ | %4
 [Gd]2 [Fd]2 cd/c/ Bc/B/ | [Ec]2 c2 [GB]4 | [EGc]4 [DA]4 | [B,DG]8 | [DGB]4 [Gc]4 | %9
 [Ac]2 [DB]2 [CEA]4 | [FAB]4 [EB]4 | [CEA]8 | [A^c]4 [Ae]4 | de/f/ gf/e/ d4 | [Gd]4 [EA]4 | %15
 [^FAd]8 | [D=FA]4 [EG]2 [DA]2 | [DB]2 [Gc]2 [Ad]2 [Be]2 | [Ace]4 [EAc]4 | B2 cd [Be]4 | %20
 [Ac]4 [FA]2 [EAc]2 | dc/d/ ed/c/ d4 | [^Fd]8 | [DGB]8 || [GB]4 [Ec]2 [Gd]2 | [Ge]2 [Gd]2 c4 | %26
 [DB]4 [=FA]2 [FB]2 | [Ec]2 [DB]2 [Ad]4 | [GBd]4 [Gc]2 [^FA]2 | [GB]2 [FB]2 d2 ^c2 | %30
 [^FAd]4 [GB]2 [G^c]2 | [Fd]2 [EA]2 [B,E]4 | [CEA]2 [Ace]2 [EGc]2 [Gd]2 | [Ae]2 [Ec]2 [Gd]4 | %34
 [Bd]4 d>c B2 | [Gc]4 [Gd]2 [Ge]2- | [Ge]2 [GBd]2 [^FAd]4 | [DGB]4 [GB]4 | %38
 [GB]2 [GB]>[Ac] [Bd]>[Ac] [GB]>[Bd] | [EAc]2 [Ac]2 [ce]2 [Bd]2 | [AB]4 [^GB]4 | [^Ge]4 [Ae]4 | %42
 [Bd]6 e=f | [Gce]4 [Gd]4 | [EGc]2 [Ec]2 [Gd]2 [Bd]2 | [Gd]3 [^Fc] [DGB]4 | %46
 [GB]2 [GB][Ac] [Fd]2 [Gd]2 | [E^c]4 [=Fd]4 | [EGc]2 [Gc]2 [DA]4 | [DGB]4 [EA]4 | %50
 [^FA]2 [Fd]2 [EB]4 | [Ec]2 [FA]2 [EB]4 | [CEA]4 [GB]2 [DG]2 | [EA]4 [^FA]4 | [EB]4 [DA]2 [FA]2 | %55
 [E^c]4 [^Fd]4 | [GB]2 [Bd]2 [Gce]2 e>d | B3 ^c d4 | [DA]8 | [DGB]8 |] %60
V:4
 x16 | x8 | x8 | x8 | x4 G2 G2 | x2 E>^F x4 | x4 G3 ^F | x8 | x8 | x8 | x4 A3 ^G | x8 | x8 | %13
 A2 G2 F4 | _B4 d3 ^c | x8 | x8 | x8 | x8 | ^G2 A4 G2 | x8 | G2 A2 B2 G2 | x8 | x8 || x8 | %25
 x4 G2 ^F2 | x8 | x8 | x8 | x4 [EA]4 | x8 | x4 A2 ^G2 | x8 | x8 | x4 G4 | x8 | x8 | x8 | x8 | x8 | %40
 x8 | x8 | x6 [GB]2 | x8 | x8 | x8 | x8 | x8 | x4 G2 ^F2 | x8 | x8 | x4 A2 ^G2 | x8 | x8 | x8 | %55
 x8 | x6 G2 | G4 G4 | G4 ^F4 | x8 |] %60
V:5
 G,4 x12 | G,4 B,,2 C,2 | D,4 G,,4 | G,,4 G,,4 | B,,4 C,2 B,,2 | A,,4 G,,4 | C,4 D,4 | G,8 | %8
w: |* 6 *|||||||
 G,4 E,4 | F,2 G,2 A,4 | D,4 E,4 | A,,8 | A,,4 ^C,4 | D,2 C,2 _B,,4 | G,,4 A,,4 | D,8 | %16
w: * 6|* * +||||* * b|||
 D,4 E,2 ^F,2 | G,2 E,2 ^F,2 ^G,2 | A,4 A,,4 | E,4 E,4 | A,,4 D,2 C,2 | B,,2 A,,2 G,,2 B,,2 | D,8 | %23
w: |* 6 * *||||||
 G,,8 || G,4 A,2 B,2 | C2 B,2 A,4 | G,4 D,4 | E,2 G,2 D,4 | G,,4 C,2 D,2 | G,,2 D,2 A,,4 | %30
w: ||||6 * *|||
 D,4 G,2 E,2 | D,2 A,,2 E,4 | A,,2 A,2 C2 B,2 | A,4 G,4 | G,4 G,3 F, | E,4 B,,2 C,2- | %36
w: * * 6||||||
 C,2 G,,2 D,4 | G,,4 G,4 | G,8 | A,6 F,2 | E,8 | E,3 D, C,4 | G,,8 | C,4 B,,4 | C,2 C2 B,2 G,2 | %45
w: |||||||||
 A,4 G,4 | G,,4"^-natural" D,2 G,,2 | A,,4 D,4 | C,2 E,2 D,4 | G,,4 A,,4 | D,2 D,2 E,4 | %51
w: |||||+ * *|
"^-natural" A,2 D,2 E,4 | A,,4 G,,2 B,,2 | A,,4 D,4 | E,4 F,2 D,2 | A,,4 D,4 | G,2 G,F, (E,4 | %57
w: ||* +||||
 E,4) B,,4 | D,8 | G,,8 |] %60
w: |||

